X: 1
T: Good Morning To Your Nightcap
M: 4/4
L: 1/8
R: reel
K: Emin
e4 d4 | cBcd edd2 | ecec dBdB | (3cBA BG EGD2 |
edce dcBd | cBcd (3ege d2 | eg (3fga gedB | (3cBA BG EGD2 :||
EAAc BGG2 | cBcd (3ege d2 | EAAc BGG2 |(3cBA BG EGD2 |
~E3c BGG2 | cBcd (3ege d2 | eg (3fga gedB | (3cBA BG EGD2 :||
